images/3235049.svg

<?xml version="1.0" encoding="UTF-8"?>
<svg xmlns="http://www.w3.org/2000/svg" xmlns:xlink="http://www.w3.org/1999/xlink" width="300pt" height="300pt" viewBox="0 0 300 300" version="1.1">
<defs>
<g>
<symbol overflow="visible" id="glyph0-0">
<path style="stroke:none;" d="M 0.75 2.65625 L 0.75 -10.578125 L 8.25 -10.578125 L 8.25 2.65625 Z M 1.59375 1.8125 L 7.40625 1.8125 L 7.40625 -9.734375 L 1.59375 -9.734375 Z M 1.59375 1.8125 "/>
</symbol>
<symbol overflow="visible" id="glyph0-1">
<path style="stroke:none;" d="M 1.46875 -10.9375 L 3.46875 -10.9375 L 8.3125 -1.78125 L 8.3125 -10.9375 L 9.75 -10.9375 L 9.75 0 L 7.75 0 L 2.90625 -9.140625 L 2.90625 0 L 1.46875 0 Z M 1.46875 -10.9375 "/>
</symbol>
</g>
</defs>
<g id="surface45165">
<rect x="0" y="0" width="300" height="300" style="fill:rgb(100%,100%,100%);fill-opacity:1;stroke:none;"/>
<path style="fill:none;stroke-width:1.2;stroke-linecap:butt;stroke-linejoin:miter;stroke:rgb(0%,0%,0%);stroke-opacity:1;stroke-miterlimit:10;" d="M 248.929688 252.273438 L 244.359375 235.226562 "/>
<path style="fill:none;stroke-width:1.2;stroke-linecap:butt;stroke-linejoin:miter;stroke:rgb(0%,0%,100%);stroke-opacity:1;stroke-miterlimit:10;" d="M 244.359375 235.226562 L 239.792969 218.179688 "/>
<path style="fill:none;stroke-width:1.2;stroke-linecap:butt;stroke-linejoin:miter;stroke:rgb(0%,0%,100%);stroke-opacity:1;stroke-miterlimit:10;" d="M 239.792969 218.179688 L 222.75 213.613281 "/>
<path style="fill:none;stroke-width:1.2;stroke-linecap:butt;stroke-linejoin:miter;stroke:rgb(0%,0%,0%);stroke-opacity:1;stroke-miterlimit:10;" d="M 222.75 213.613281 L 205.703125 209.046875 "/>
<path style="fill:none;stroke-width:1.2;stroke-linecap:butt;stroke-linejoin:miter;stroke:rgb(0%,0%,0%);stroke-opacity:1;stroke-miterlimit:10;" d="M 264.75 193.226562 L 252.273438 205.703125 "/>
<path style="fill:none;stroke-width:1.2;stroke-linecap:butt;stroke-linejoin:miter;stroke:rgb(0%,0%,100%);stroke-opacity:1;stroke-miterlimit:10;" d="M 252.273438 205.703125 L 239.792969 218.179688 "/>
<path style=" stroke:none;fill-rule:nonzero;fill:rgb(100%,100%,100%);fill-opacity:1;" d="M 234.792969 209.179688 L 245.792969 209.179688 L 245.792969 227.179688 L 234.792969 227.179688 Z M 234.792969 209.179688 "/>
<g style="fill:rgb(0%,0%,100%);fill-opacity:1;">
  <use xlink:href="#glyph0-1" x="234.792969" y="222.793945"/>
</g>
<path style="fill:none;stroke-width:1.2;stroke-linecap:butt;stroke-linejoin:miter;stroke:rgb(0%,0%,0%);stroke-opacity:1;stroke-miterlimit:10;" d="M 205.703125 209.046875 L 196.570312 174.957031 "/>
<path style="fill:none;stroke-width:1.2;stroke-linecap:butt;stroke-linejoin:miter;stroke:rgb(0%,0%,0%);stroke-opacity:1;stroke-miterlimit:10;" d="M 196.570312 174.957031 L 209.046875 162.476562 "/>
<path style="fill:none;stroke-width:1.2;stroke-linecap:butt;stroke-linejoin:miter;stroke:rgb(0%,0%,100%);stroke-opacity:1;stroke-miterlimit:10;" d="M 209.046875 162.476562 L 221.523438 150 "/>
<path style="fill:none;stroke-width:1.2;stroke-linecap:butt;stroke-linejoin:miter;stroke:rgb(0%,0%,100%);stroke-opacity:1;stroke-miterlimit:10;" d="M 221.523438 150 L 238.570312 154.566406 "/>
<path style="fill:none;stroke-width:1.2;stroke-linecap:butt;stroke-linejoin:miter;stroke:rgb(0%,0%,0%);stroke-opacity:1;stroke-miterlimit:10;" d="M 238.570312 154.566406 L 255.617188 159.132812 "/>
<path style="fill:none;stroke-width:1.2;stroke-linecap:butt;stroke-linejoin:miter;stroke:rgb(0%,0%,100%);stroke-opacity:1;stroke-miterlimit:10;" d="M 221.523438 150 L 216.957031 132.953125 "/>
<path style="fill:none;stroke-width:1.2;stroke-linecap:butt;stroke-linejoin:miter;stroke:rgb(0%,0%,0%);stroke-opacity:1;stroke-miterlimit:10;" d="M 216.957031 132.953125 L 212.390625 115.910156 "/>
<path style=" stroke:none;fill-rule:nonzero;fill:rgb(100%,100%,100%);fill-opacity:1;" d="M 216.523438 141 L 227.523438 141 L 227.523438 159 L 216.523438 159 Z M 216.523438 141 "/>
<g style="fill:rgb(0%,0%,100%);fill-opacity:1;">
  <use xlink:href="#glyph0-1" x="216.523438" y="154.614258"/>
</g>
<path style="fill:none;stroke-width:1.2;stroke-linecap:butt;stroke-linejoin:miter;stroke:rgb(0%,0%,0%);stroke-opacity:1;stroke-miterlimit:10;" d="M 255.617188 159.132812 L 264.75 193.226562 "/>
<path style="fill:none;stroke-width:1.2;stroke-linecap:butt;stroke-linejoin:miter;stroke:rgb(0%,0%,0%);stroke-opacity:1;stroke-miterlimit:10;" d="M 212.390625 115.910156 L 224.867188 103.429688 "/>
<path style="fill:none;stroke-width:1.2;stroke-linecap:butt;stroke-linejoin:miter;stroke:rgb(0%,0%,100%);stroke-opacity:1;stroke-miterlimit:10;" d="M 224.867188 103.429688 L 237.347656 90.953125 "/>
<path style="fill:none;stroke-width:1.2;stroke-linecap:butt;stroke-linejoin:miter;stroke:rgb(0%,0%,0%);stroke-opacity:1;stroke-miterlimit:10;" d="M 209.015625 107.542969 L 218.996094 97.558594 "/>
<path style="fill:none;stroke-width:1.2;stroke-linecap:butt;stroke-linejoin:miter;stroke:rgb(0%,0%,100%);stroke-opacity:1;stroke-miterlimit:10;" d="M 218.996094 97.558594 L 228.980469 87.578125 "/>
<path style="fill:none;stroke-width:1.2;stroke-linecap:butt;stroke-linejoin:miter;stroke:rgb(0%,0%,0%);stroke-opacity:1;stroke-miterlimit:10;" d="M 178.300781 106.773438 L 212.390625 115.910156 "/>
<path style="fill:none;stroke-width:1.2;stroke-linecap:butt;stroke-linejoin:miter;stroke:rgb(0%,0%,100%);stroke-opacity:1;stroke-miterlimit:10;" d="M 237.347656 90.953125 L 232.777344 73.90625 "/>
<path style="fill:none;stroke-width:1.2;stroke-linecap:butt;stroke-linejoin:miter;stroke:rgb(0%,0%,0%);stroke-opacity:1;stroke-miterlimit:10;" d="M 232.777344 73.90625 L 228.210938 56.863281 "/>
<path style=" stroke:none;fill-rule:nonzero;fill:rgb(100%,100%,100%);fill-opacity:1;" d="M 232.347656 81.953125 L 243.347656 81.953125 L 243.347656 99.953125 L 232.347656 99.953125 Z M 232.347656 81.953125 "/>
<g style="fill:rgb(0%,0%,100%);fill-opacity:1;">
  <use xlink:href="#glyph0-1" x="232.347656" y="95.567383"/>
</g>
<path style="fill:none;stroke-width:1.2;stroke-linecap:butt;stroke-linejoin:miter;stroke:rgb(0%,0%,0%);stroke-opacity:1;stroke-miterlimit:10;" d="M 228.210938 56.863281 L 211.167969 52.296875 "/>
<path style="fill:none;stroke-width:1.2;stroke-linecap:butt;stroke-linejoin:miter;stroke:rgb(0%,0%,100%);stroke-opacity:1;stroke-miterlimit:10;" d="M 211.167969 52.296875 L 194.121094 47.726562 "/>
<path style="fill:none;stroke-width:1.2;stroke-linecap:butt;stroke-linejoin:miter;stroke:rgb(0%,0%,0%);stroke-opacity:1;stroke-miterlimit:10;" d="M 222.652344 63.96875 L 209.015625 60.316406 "/>
<path style="fill:none;stroke-width:1.2;stroke-linecap:butt;stroke-linejoin:miter;stroke:rgb(0%,0%,100%);stroke-opacity:1;stroke-miterlimit:10;" d="M 209.015625 60.316406 L 195.378906 56.664062 "/>
<path style="fill:none;stroke-width:1.2;stroke-linecap:butt;stroke-linejoin:miter;stroke:rgb(0%,0%,100%);stroke-opacity:1;stroke-miterlimit:10;" d="M 194.121094 47.726562 L 181.644531 60.207031 "/>
<path style="fill:none;stroke-width:1.2;stroke-linecap:butt;stroke-linejoin:miter;stroke:rgb(0%,0%,0%);stroke-opacity:1;stroke-miterlimit:10;" d="M 181.644531 60.207031 L 169.164062 72.683594 "/>
<path style=" stroke:none;fill-rule:nonzero;fill:rgb(100%,100%,100%);fill-opacity:1;" d="M 189.121094 38.726562 L 200.121094 38.726562 L 200.121094 56.726562 L 189.121094 56.726562 Z M 189.121094 38.726562 "/>
<g style="fill:rgb(0%,0%,100%);fill-opacity:1;">
  <use xlink:href="#glyph0-1" x="189.121094" y="52.34082"/>
</g>
<path style="fill:none;stroke-width:1.2;stroke-linecap:butt;stroke-linejoin:miter;stroke:rgb(0%,0%,0%);stroke-opacity:1;stroke-miterlimit:10;" d="M 169.164062 72.683594 L 178.300781 106.773438 "/>
<path style="fill:none;stroke-width:1.2;stroke-linecap:butt;stroke-linejoin:miter;stroke:rgb(0%,0%,0%);stroke-opacity:1;stroke-miterlimit:10;" d="M 162.058594 78.242188 L 169.363281 105.515625 "/>
<path style="fill:none;stroke-width:1.2;stroke-linecap:butt;stroke-linejoin:miter;stroke:rgb(0%,0%,0%);stroke-opacity:1;stroke-miterlimit:10;" d="M 135.074219 63.550781 L 169.164062 72.683594 "/>
<path style="fill:none;stroke-width:1.2;stroke-linecap:butt;stroke-linejoin:miter;stroke:rgb(0%,0%,0%);stroke-opacity:1;stroke-miterlimit:10;" d="M 178.300781 106.773438 L 153.34375 131.730469 "/>
<path style="fill:none;stroke-width:1.2;stroke-linecap:butt;stroke-linejoin:miter;stroke:rgb(0%,0%,0%);stroke-opacity:1;stroke-miterlimit:10;" d="M 153.34375 131.730469 L 119.253906 122.597656 "/>
<path style="fill:none;stroke-width:1.2;stroke-linecap:butt;stroke-linejoin:miter;stroke:rgb(0%,0%,0%);stroke-opacity:1;stroke-miterlimit:10;" d="M 152.082031 122.796875 L 124.8125 115.488281 "/>
<path style="fill:none;stroke-width:1.2;stroke-linecap:butt;stroke-linejoin:miter;stroke:rgb(0%,0%,0%);stroke-opacity:1;stroke-miterlimit:10;" d="M 119.253906 122.597656 L 110.117188 88.503906 "/>
<path style="fill:none;stroke-width:1.2;stroke-linecap:butt;stroke-linejoin:miter;stroke:rgb(0%,0%,0%);stroke-opacity:1;stroke-miterlimit:10;" d="M 119.253906 122.597656 L 94.296875 147.550781 "/>
<path style="fill:none;stroke-width:1.2;stroke-linecap:butt;stroke-linejoin:miter;stroke:rgb(0%,0%,0%);stroke-opacity:1;stroke-miterlimit:10;" d="M 110.117188 88.503906 L 135.074219 63.550781 "/>
<path style="fill:none;stroke-width:1.2;stroke-linecap:butt;stroke-linejoin:miter;stroke:rgb(0%,0%,0%);stroke-opacity:1;stroke-miterlimit:10;" d="M 118.484375 91.882812 L 138.449219 71.917969 "/>
<path style="fill:none;stroke-width:1.2;stroke-linecap:butt;stroke-linejoin:miter;stroke:rgb(0%,0%,0%);stroke-opacity:1;stroke-miterlimit:10;" d="M 94.296875 147.550781 L 60.207031 138.417969 "/>
<path style="fill:none;stroke-width:1.2;stroke-linecap:butt;stroke-linejoin:miter;stroke:rgb(0%,0%,0%);stroke-opacity:1;stroke-miterlimit:10;" d="M 88.738281 154.660156 L 61.464844 147.351562 "/>
<path style="fill:none;stroke-width:1.2;stroke-linecap:butt;stroke-linejoin:miter;stroke:rgb(0%,0%,0%);stroke-opacity:1;stroke-miterlimit:10;" d="M 103.429688 181.644531 L 94.296875 147.550781 "/>
<path style="fill:none;stroke-width:1.2;stroke-linecap:butt;stroke-linejoin:miter;stroke:rgb(0%,0%,0%);stroke-opacity:1;stroke-miterlimit:10;" d="M 60.207031 138.417969 L 35.25 163.375 "/>
<path style="fill:none;stroke-width:1.2;stroke-linecap:butt;stroke-linejoin:miter;stroke:rgb(0%,0%,0%);stroke-opacity:1;stroke-miterlimit:10;" d="M 35.25 163.375 L 44.382812 197.464844 "/>
<path style="fill:none;stroke-width:1.2;stroke-linecap:butt;stroke-linejoin:miter;stroke:rgb(0%,0%,0%);stroke-opacity:1;stroke-miterlimit:10;" d="M 44.183594 164.632812 L 51.492188 191.90625 "/>
<path style="fill:none;stroke-width:1.2;stroke-linecap:butt;stroke-linejoin:miter;stroke:rgb(0%,0%,0%);stroke-opacity:1;stroke-miterlimit:10;" d="M 44.382812 197.464844 L 78.476562 206.597656 "/>
<path style="fill:none;stroke-width:1.2;stroke-linecap:butt;stroke-linejoin:miter;stroke:rgb(0%,0%,0%);stroke-opacity:1;stroke-miterlimit:10;" d="M 78.476562 206.597656 L 103.429688 181.644531 "/>
<path style="fill:none;stroke-width:1.2;stroke-linecap:butt;stroke-linejoin:miter;stroke:rgb(0%,0%,0%);stroke-opacity:1;stroke-miterlimit:10;" d="M 75.097656 198.230469 L 95.0625 178.265625 "/>
<path style="fill:none;stroke-width:1.2;stroke-linecap:butt;stroke-linejoin:miter;stroke:rgb(0%,0%,0%);stroke-opacity:1;stroke-miterlimit:10;" d="M 103.429688 181.644531 L 137.523438 190.777344 "/>
<path style="fill:none;stroke-width:1.2;stroke-linecap:butt;stroke-linejoin:miter;stroke:rgb(0%,0%,0%);stroke-opacity:1;stroke-miterlimit:10;" d="M 137.523438 190.777344 L 154.566406 195.34375 "/>
<path style="fill:none;stroke-width:1.2;stroke-linecap:butt;stroke-linejoin:miter;stroke:rgb(0%,0%,100%);stroke-opacity:1;stroke-miterlimit:10;" d="M 154.566406 195.34375 L 171.613281 199.914062 "/>
<path style="fill:none;stroke-width:1.2;stroke-linecap:butt;stroke-linejoin:miter;stroke:rgb(0%,0%,0%);stroke-opacity:1;stroke-miterlimit:10;" d="M 138.78125 199.710938 L 152.417969 203.367188 "/>
<path style="fill:none;stroke-width:1.2;stroke-linecap:butt;stroke-linejoin:miter;stroke:rgb(0%,0%,100%);stroke-opacity:1;stroke-miterlimit:10;" d="M 152.417969 203.367188 L 166.054688 207.019531 "/>
<path style="fill:none;stroke-width:1.2;stroke-linecap:butt;stroke-linejoin:miter;stroke:rgb(0%,0%,0%);stroke-opacity:1;stroke-miterlimit:10;" d="M 143.082031 183.667969 L 156.714844 187.324219 "/>
<path style="fill:none;stroke-width:1.2;stroke-linecap:butt;stroke-linejoin:miter;stroke:rgb(0%,0%,100%);stroke-opacity:1;stroke-miterlimit:10;" d="M 156.714844 187.324219 L 170.351562 190.976562 "/>
<path style=" stroke:none;fill-rule:nonzero;fill:rgb(100%,100%,100%);fill-opacity:1;" d="M 166.613281 190.914062 L 177.613281 190.914062 L 177.613281 208.914062 L 166.613281 208.914062 Z M 166.613281 190.914062 "/>
<g style="fill:rgb(0%,0%,100%);fill-opacity:1;">
  <use xlink:href="#glyph0-1" x="166.613281" y="204.52832"/>
</g>
</g>
</svg>

<svg xmlns="http://www.w3.org/2000/svg" xmlns:xlink="http://www.w3.org/1999/xlink" width="300pt" height="300pt" viewBox="0 0 300 300"><defs><symbol overflow="visible"><path d="M.75 2.656v-13.234h7.5V2.656zm.844-.844h5.812V-9.733H1.594zm0 0"/></symbol><symbol overflow="visible" id="a"><path d="M1.47-10.938h2L8.31-1.78v-9.158H9.75V0h-2L2.906-9.14V0H1.47zm0 0"/></symbol></defs><g><path fill="#fff" d="M0 0h300v300H0z"/><path d="M248.93 252.273l-4.57-17.046" stroke-width="1.2" stroke="#000" stroke-miterlimit="10" fill="none"/><path d="M244.36 235.227l-4.567-17.047M239.793 218.18l-17.043-4.567" stroke-width="1.2" stroke="#00f" stroke-miterlimit="10" fill="none"/><path d="M222.75 213.613l-17.047-4.566M264.75 193.227l-12.477 12.476" stroke-width="1.2" stroke="#000" stroke-miterlimit="10" fill="none"/><path d="M252.273 205.703l-12.48 12.477" stroke-width="1.2" stroke="#00f" stroke-miterlimit="10" fill="none"/><path d="M234.793 209.18h11v18h-11zm0 0" fill="#fff"/><use xlink:href="#a" x="234.793" y="222.794" fill="#00f"/><path d="M205.703 209.047l-9.133-34.09M196.57 174.957l12.477-12.48" stroke-width="1.2" stroke="#000" stroke-miterlimit="10" fill="none"/><path d="M209.047 162.477L221.523 150M221.523 150l17.047 4.566" stroke-width="1.2" stroke="#00f" stroke-miterlimit="10" fill="none"/><path d="M238.57 154.566l17.047 4.567" stroke-width="1.2" stroke="#000" stroke-miterlimit="10" fill="none"/><path d="M221.523 150l-4.566-17.047" stroke-width="1.2" stroke="#00f" stroke-miterlimit="10" fill="none"/><path d="M216.957 132.953l-4.566-17.043" stroke-width="1.2" stroke="#000" stroke-miterlimit="10" fill="none"/><path d="M216.523 141h11v18h-11zm0 0" fill="#fff"/><use xlink:href="#a" x="216.523" y="154.614" fill="#00f"/><path d="M255.617 159.133l9.133 34.094M212.39 115.91l12.477-12.48" stroke-width="1.2" stroke="#000" stroke-miterlimit="10" fill="none"/><path d="M224.867 103.43l12.48-12.477" stroke-width="1.2" stroke="#00f" stroke-miterlimit="10" fill="none"/><path d="M209.016 107.543l9.98-9.984" stroke-width="1.2" stroke="#000" stroke-miterlimit="10" fill="none"/><path d="M218.996 97.56l9.984-9.982" stroke-width="1.2" stroke="#00f" stroke-miterlimit="10" fill="none"/><path d="M178.3 106.773l34.09 9.137" stroke-width="1.2" stroke="#000" stroke-miterlimit="10" fill="none"/><path d="M237.348 90.953l-4.57-17.047" stroke-width="1.2" stroke="#00f" stroke-miterlimit="10" fill="none"/><path d="M232.777 73.906l-4.566-17.043" stroke-width="1.2" stroke="#000" stroke-miterlimit="10" fill="none"/><path d="M232.348 81.953h11v18h-11zm0 0" fill="#fff"/><use xlink:href="#a" x="232.348" y="95.567" fill="#00f"/><path d="M228.21 56.863l-17.042-4.566" stroke-width="1.2" stroke="#000" stroke-miterlimit="10" fill="none"/><path d="M211.168 52.297l-17.047-4.57" stroke-width="1.2" stroke="#00f" stroke-miterlimit="10" fill="none"/><path d="M222.652 63.97l-13.636-3.654" stroke-width="1.2" stroke="#000" stroke-miterlimit="10" fill="none"/><path d="M209.016 60.316l-13.637-3.652M194.12 47.727l-12.475 12.48" stroke-width="1.2" stroke="#00f" stroke-miterlimit="10" fill="none"/><path d="M181.645 60.207l-12.48 12.477" stroke-width="1.2" stroke="#000" stroke-miterlimit="10" fill="none"/><path d="M189.12 38.727h11v18h-11zm0 0" fill="#fff"/><use xlink:href="#a" x="189.121" y="52.341" fill="#00f"/><path d="M169.164 72.684l9.137 34.09M162.06 78.242l7.303 27.274M135.074 63.55l34.09 9.134M178.3 106.773l-24.956 24.957M153.344 131.73l-34.09-9.132M152.082 122.797l-27.27-7.31M119.254 122.598l-9.137-34.094M119.254 122.598L94.297 147.55M110.117 88.504l24.957-24.953M118.484 91.883l19.965-19.965M94.297 147.55l-34.09-9.132M88.738 154.66l-27.273-7.308M103.43 181.645l-9.133-34.094M60.207 138.418L35.25 163.375M35.25 163.375l9.133 34.09M44.184 164.633l7.308 27.273M44.383 197.465l34.094 9.133M78.477 206.598l24.953-24.953M75.098 198.23l19.965-19.964M103.43 181.645l34.093 9.132M137.523 190.777l17.043 4.567" stroke-width="1.2" stroke="#000" stroke-miterlimit="10" fill="none"/><path d="M154.566 195.344l17.047 4.57" stroke-width="1.2" stroke="#00f" stroke-miterlimit="10" fill="none"/><path d="M138.78 199.71l13.638 3.657" stroke-width="1.2" stroke="#000" stroke-miterlimit="10" fill="none"/><path d="M152.418 203.367l13.637 3.653" stroke-width="1.2" stroke="#00f" stroke-miterlimit="10" fill="none"/><path d="M143.082 183.668l13.633 3.656" stroke-width="1.2" stroke="#000" stroke-miterlimit="10" fill="none"/><path d="M156.715 187.324l13.637 3.653" stroke-width="1.2" stroke="#00f" stroke-miterlimit="10" fill="none"/><path d="M166.613 190.914h11v18h-11zm0 0" fill="#fff"/><use xlink:href="#a" x="166.613" y="204.528" fill="#00f"/></g></svg>
